icons/midnadark/actions/24/kstars_hgrid.svg

<?xml version="1.0" encoding="UTF-8" standalone="no"?>
<!-- Created with Inkscape (http://www.inkscape.org/) -->

<svg
   xmlns:dc="http://purl.org/dc/elements/1.1/"
   xmlns:cc="http://creativecommons.org/ns#"
   xmlns:rdf="http://www.w3.org/1999/02/22-rdf-syntax-ns#"
   xmlns:svg="http://www.w3.org/2000/svg"
   xmlns="http://www.w3.org/2000/svg"
   xmlns:sodipodi="http://sodipodi.sourceforge.net/DTD/sodipodi-0.dtd"
   xmlns:inkscape="http://www.inkscape.org/namespaces/inkscape"
   width="22"
   height="22"
   id="svg2"
   version="1.1"
   inkscape:version="0.91 r13725"
   viewBox="0 0 22 22"
   sodipodi:docname="kstars_hgrid.svg">
  <defs
     id="defs4">
    <style
       type="text/css"
       id="current-color-scheme">
      .ColorScheme-Text {
        color:#f2f2f2;
      }
      .ColorScheme-Background {
        color:#eff0f1;
      }
      .ColorScheme-Highlight {
        color:#3daee9;
      }
      .ColorScheme-ViewText {
        color:#31363b;
      }
      .ColorScheme-ViewBackground {
        color:#fcfcfc;
      }
      .ColorScheme-ViewHover {
        color:#93cee9;
      }
      .ColorScheme-ViewFocus{
        color:#3daee9;
      }
      .ColorScheme-ButtonText {
        color:#31363b;
      }
      .ColorScheme-ButtonBackground {
        color:#eff0f1;
      }
      .ColorScheme-ButtonHover {
        color:#93cee9;
      }
      .ColorScheme-ButtonFocus{
        color:#3daee9;
      }
      </style>
    <clipPath
       clipPathUnits="userSpaceOnUse"
       id="clipPath3979">
      <rect
         style="fill:#000000"
         id="rect3981"
         width="64"
         height="64"
         x="0.090115756"
         y="-0.090114839"
         clip-path="none" />
    </clipPath>
    <clipPath
       clipPathUnits="userSpaceOnUse"
       id="clipPath3975">
      <rect
         style="fill:#000000"
         id="rect3977"
         width="64"
         height="64"
         x="0.090115756"
         y="-0.090114839"
         clip-path="none" />
    </clipPath>
    <clipPath
       clipPathUnits="userSpaceOnUse"
       id="clipPath3971">
      <rect
         style="fill:#000000"
         id="rect3973"
         width="64"
         height="64"
         x="0.090115756"
         y="-0.090114839"
         clip-path="none" />
    </clipPath>
    <clipPath
       clipPathUnits="userSpaceOnUse"
       id="clipPath3967">
      <rect
         style="fill:#000000"
         id="rect3969"
         width="64"
         height="64"
         x="0.090115756"
         y="-0.090114839"
         clip-path="none" />
    </clipPath>
    <clipPath
       clipPathUnits="userSpaceOnUse"
       id="clipPath3963">
      <rect
         style="fill:#000000"
         id="rect3965"
         width="64"
         height="64"
         x="0.090115756"
         y="-0.090114839"
         clip-path="none" />
    </clipPath>
    <clipPath
       clipPathUnits="userSpaceOnUse"
       id="clipPath3959">
      <rect
         style="fill:#000000"
         id="rect3961"
         width="64"
         height="64"
         x="0.090115756"
         y="-0.090114839"
         clip-path="none" />
    </clipPath>
  </defs>
  <sodipodi:namedview
     id="base"
     pagecolor="#ffffff"
     bordercolor="#666666"
     borderopacity="1.0"
     inkscape:pageopacity="0.0"
     inkscape:pageshadow="2"
     inkscape:zoom="16"
     inkscape:cx="3.040559"
     inkscape:cy="9.099579"
     inkscape:document-units="px"
     inkscape:current-layer="layer1"
     showgrid="true"
     inkscape:showpageshadow="false"
     units="px"
     inkscape:window-width="1024"
     inkscape:window-height="712"
     inkscape:window-x="0"
     inkscape:window-y="0"
     inkscape:window-maximized="1"
     inkscape:object-nodes="true"
     inkscape:snap-bbox="true">
    <inkscape:grid
       type="xygrid"
       id="grid4120" />
    <sodipodi:guide
       position="2,20.000017"
       orientation="18,0"
       id="guide4126" />
    <sodipodi:guide
       position="2,2.0000174"
       orientation="0,18"
       id="guide4128" />
    <sodipodi:guide
       position="20,2.0000174"
       orientation="-18,0"
       id="guide4130" />
    <sodipodi:guide
       position="20,20.000017"
       orientation="0,-18"
       id="guide4132" />
    <sodipodi:guide
       position="3,19.000017"
       orientation="16,0"
       id="guide4134" />
    <sodipodi:guide
       position="3,3.0000174"
       orientation="0,16"
       id="guide4136" />
    <sodipodi:guide
       position="19,3.0000174"
       orientation="-16,0"
       id="guide4138" />
    <sodipodi:guide
       position="19,19.000017"
       orientation="0,-16"
       id="guide4140" />
    <sodipodi:guide
       position="19,13.000017"
       orientation="-6,0"
       id="guide4199" />
    <sodipodi:guide
       position="19,19.000017"
       orientation="0,-6.0000172"
       id="guide4201" />
  </sodipodi:namedview>
  <metadata
     id="metadata7">
    <rdf:RDF>
      <cc:Work
         rdf:about="">
        <dc:format>image/svg+xml</dc:format>
        <dc:type
           rdf:resource="http://purl.org/dc/dcmitype/StillImage" />
        <dc:title></dc:title>
      </cc:Work>
    </rdf:RDF>
  </metadata>
  <g
     inkscape:label="Capa 1"
     inkscape:groupmode="layer"
     id="layer1"
     transform="translate(0,-1030.3622)">
    <path
       transform="matrix(0.25,0,0,0.24964854,2.9774709,1033.3847)"
       style="fill:#f2f2f2;fill-opacity:1;stroke:none"
       d="M 70.099166,46.753031 C 47.268987,60.928941 18.057406,60.718836 -4.5889875,46.134312 l -3.6018252,3.601825 C 16.50688,66.136272 48.807575,66.334155 73.700991,50.354856 l -3.601825,-3.601825 z"
       id="path3368"
       sodipodi:nodetypes="ccccc"
       inkscape:connector-curvature="0"
       clip-path="url(#clipPath3979)" />
    <path
       style="fill:#f2f2f2;fill-opacity:1;fill-rule:evenodd;stroke:none"
       d="m 32.08929,-3.2866875 -2.708379,2.1855144 0.171674,68.8617281 2.4994,2.051225 2.442797,-1.949673 -0.121946,-69.2918703 -2.283546,-1.8569242 z"
       id="path3405"
       sodipodi:nodetypes="ccccccc"
       inkscape:connector-curvature="0"
       clip-path="url(#clipPath3975)"
       transform="matrix(0.25,0,0,0.24964854,2.9774709,1033.4072)" />
    <path
       transform="matrix(0.25,0,0,0.24964854,2.9774709,1033.3847)"
       style="fill:#f2f2f2;fill-opacity:1;fill-rule:evenodd;stroke:none"
       d="m 21.533708,-6.3050504 -3.318232,1.0493423 -24.9133737,64.1972811 1.5809588,2.820478 2.9850093,-0.926392 25.1163076,-64.57979 -1.45067,-2.5609194 z"
       id="path3405-4"
       sodipodi:nodetypes="ccccccc"
       inkscape:connector-curvature="0"
       inkscape:transform-center-x="-5.1960427"
       inkscape:transform-center-y="1.4133698"
       clip-path="url(#clipPath3971)" />
    <path
       transform="matrix(0.25,0,0,0.24964854,2.9774709,1033.3847)"
       style="fill:#f2f2f2;fill-opacity:1;fill-rule:evenodd;stroke:none"
       d="m 42.796685,-7.872101 -1.739564,3.0142507 24.959753,64.1792623 3.07041,1.013463 1.576737,-2.698589 L 45.59575,-6.9621649 42.796685,-7.872101 Z"
       id="path3405-4-9"
       sodipodi:nodetypes="ccccccc"
       inkscape:connector-curvature="0"
       inkscape:transform-center-x="-4.7540911"
       inkscape:transform-center-y="-2.5091037"
       clip-path="url(#clipPath3967)" />
    <path
       transform="matrix(0.25,0,0,0.24964854,2.9774709,1033.3847)"
       style="fill:#f2f2f2;fill-opacity:1;stroke:none"
       d="M 71.547122,23.048264 C 48.716943,37.224174 19.505362,37.014069 -3.1410322,22.429545 l -3.601825,3.601825 C 17.954836,42.431505 50.255531,42.629388 75.148947,26.650089 l -3.601825,-3.601825 z"
       id="path3368-5"
       sodipodi:nodetypes="ccccc"
       inkscape:connector-curvature="0"
       clip-path="url(#clipPath3963)" />
    <path
       transform="matrix(0.25,0,0,0.24964854,2.9774709,1033.3847)"
       style="fill:#f2f2f2;fill-opacity:1;stroke:none"
       d="M 70.490657,-0.32601789 C 47.660478,13.849892 18.448897,13.639787 -4.1974971,-0.94473689 L -7.7993221,2.6570881 C 16.898371,19.057223 49.199066,19.255106 74.092482,3.2758071 l -3.601825,-3.60182499 z"
       id="path3368-5-0"
       sodipodi:nodetypes="ccccc"
       inkscape:connector-curvature="0"
       clip-path="url(#clipPath3959)" />
  </g>
</svg>

<svg xmlns="http://www.w3.org/2000/svg" viewBox="0 0 22 22"><defs><clipPath id="4"><path d="m.09-.09h64v64h-64z"/></clipPath><clipPath id="5"><path d="m.09-.09h64v64h-64z"/></clipPath><clipPath id="3"><path d="m.09-.09h64v64h-64z"/></clipPath><clipPath id="1"><path d="m.09-.09h64v64h-64z"/></clipPath><clipPath id="0"><path d="m.09-.09h64v64h-64z"/></clipPath><clipPath id="2"><path d="m.09-.09h64v64h-64z"/></clipPath></defs><g fill="#f2f2f2"><path transform="matrix(.25 0 0 .24965 2.977 3.02)" d="m70.1 46.753c-22.83 14.176-52.04 13.966-74.69-.619l-3.602 3.602c24.698 16.4 56.998 16.598 81.892.619l-3.602-3.602" clip-path="url(#0)"/><g fill-rule="evenodd"><path d="m32.09-3.287l-2.708 2.186.172 68.862 2.499 2.051 2.443-1.95-.122-69.29-2.284-1.857" clip-path="url(#1)" transform="matrix(.25 0 0 .24965 2.977 3.045)"/><path transform="matrix(.25 0 0 .24965 2.977 3.02)" d="m21.534-6.305l-3.318 1.049-24.913 64.2 1.581 2.82 2.985-.926 25.12-64.58-1.451-2.561" clip-path="url(#2)"/><path transform="matrix(.25 0 0 .24965 2.977 3.02)" d="m42.797-7.872l-1.74 3.01 24.96 64.18 3.07 1.013 1.577-2.699-25.07-64.6-2.799-.91" clip-path="url(#3)"/></g><path transform="matrix(.25 0 0 .24965 2.977 3.02)" d="m71.55 23.05c-22.83 14.176-52.04 13.966-74.69-.619l-3.602 3.602c24.698 16.4 56.998 16.598 81.892.619l-3.602-3.602" clip-path="url(#4)"/><path transform="matrix(.25 0 0 .24965 2.977 3.02)" d="m70.49-.326c-22.83 14.176-52.04 13.966-74.69-.619l-3.602 3.602c24.698 16.4 56.998 16.598 81.892.619l-3.602-3.602" clip-path="url(#5)"/></g></svg>
